X:165
T: EI DU FEINER REITER
N: E1298
O: Europa, Mitteleuropa, Deutschland
R: Staende -, Soldaten - Lied, Reiter
M: 4/4
L: 1/8
K: C
 | E3FG2A2 | G4G2
F2 | E2E2D2D2 | C8
E3FG2A2 | G4G2
F2 | E2E2D2D2 | C8
B3cd2e2 | d4d2
c2 | B4A4 | G8
B3cd2e2 | d4d2
c2 | B4A4 | G6
G2 | c4A4 | G6
G2 | c4A4 | G6
G2 | c4c2d2 | c4B4
c4A4 | G8
E3FG2A2 | G3GG2
F2 | E2E2D2D2 | C8

